file/acrobat-reader.svg

<svg clip-rule="evenodd" fill-rule="evenodd" stroke-linejoin="round" stroke-miterlimit="1.41421" viewBox="0 0 560 400" xmlns="http://www.w3.org/2000/svg" xmlns:xlink="http://www.w3.org/1999/xlink"><radialGradient id="a" cx="0" cy="0" gradientTransform="matrix(159.853 0 0 160.297 39.0224 -6.40976)" gradientUnits="userSpaceOnUse" r="1"><stop offset="0" stop-color="#ec1c24"/><stop offset=".15" stop-color="#e21c23"/><stop offset=".4" stop-color="#c51b21"/><stop offset=".73" stop-color="#981b1e"/><stop offset="1" stop-color="#6e1a1b"/></radialGradient><linearGradient id="b" gradientUnits="userSpaceOnUse" x1="16.1685" x2="83.8304" y1="50.0002" y2="50.0002"><stop offset="0" stop-color="#fff"/><stop offset=".14" stop-color="#fff"/><stop offset="1" stop-color="#eaecea"/></linearGradient><g transform="matrix(2.7 0 0 2.7 145 65)"><path d="m0 1.1h100v97.8h-100z" fill="url(#a)"/><path d="m82.7 59.3c-2-2.1-6.1-3.3-11.9-3.3-3.1 0-6.7.3-10.6 1-2.2-2.1-4.4-4.6-6.5-7.5-1.5-2-2.8-4.2-4-6.3 2.3-7 3.4-12.7 3.4-16.8 0-4.6-1.7-9.4-6.6-9.4-1.5 0-3 .9-3.8 2.2-2.2 3.9-1.2 12.4 2.6 20.8-1.4 4.2-2.9 8.2-4.8 12.7-1.6 3.8-3.4 7.7-5.4 11.3-11 4.4-18.1 9.5-18.9 13.5-.3 1.5.2 2.9 1.3 4 .4.3 1.8 1.5 4.2 1.5 7.3 0 15-11.8 18.9-18.9 3-1 6-2 9-2.8 3.3-.9 6.6-1.6 9.6-2.1 7.7 6.9 14.5 8 17.9 8 4.2 0 5.7-1.7 6.2-3.1.9-1.8.3-3.8-.6-4.8zm-4 2.9c-.3 1.5-1.8 2.5-3.9 2.5-.6 0-1.1-.1-1.7-.2-3.8-.9-7.4-2.8-11-5.8 3.5-.6 6.5-.7 8.4-.7 2.1 0 3.9.1 5.1.4 1.4.3 3.6 1.2 3.1 3.8zm-21.2-4.7c-2.6.5-5.4 1.1-8.3 1.9-2.3.6-4.7 1.3-7.1 2.1 1.3-2.5 2.4-4.9 3.4-7.2 1.2-2.8 2.2-5.7 3.2-8.4 1 1.7 2.1 3.4 3.2 4.9 1.9 2.4 3.8 4.7 5.6 6.7zm-13.1-37.2c.4-.8 1.2-1.2 1.9-1.2 2.1 0 2.5 2.4 2.5 4.3 0 3.2-1 8.1-2.7 13.7-2.9-7.8-3.1-14.3-1.7-16.8zm-11 46.6c-5.1 8.4-10 13.6-13 13.6-.6 0-1.1-.2-1.5-.5-.6-.6-.9-1.3-.7-2.1.6-3 6.4-7.2 15.2-11z" fill="url(#b)" fill-rule="nonzero"/></g></svg>

<?xml version="1.0" encoding="UTF-8" standalone="no"?>
<!DOCTYPE svg PUBLIC "-//W3C//DTD SVG 1.1//EN" "http://www.w3.org/Graphics/SVG/1.1/DTD/svg11.dtd">
<svg width="100%" height="100%" viewBox="0 0 560 400" version="1.1" xmlns="http://www.w3.org/2000/svg" xmlns:xlink="http://www.w3.org/1999/xlink" xml:space="preserve" xmlns:serif="http://www.serif.com/" style="fill-rule:evenodd;clip-rule:evenodd;stroke-linejoin:round;stroke-miterlimit:1.41421;">
    <g transform="matrix(2.7,0,0,2.7,145,65)">
        <rect id="tile_2_" x="0" y="1.1" width="100" height="97.8" style="fill:url(#_Radial1);"/>
        <path d="M82.7,59.3C80.7,57.2 76.6,56 70.8,56C67.7,56 64.1,56.3 60.2,57C58,54.9 55.8,52.4 53.7,49.5C52.2,47.5 50.9,45.3 49.7,43.2C52,36.2 53.1,30.5 53.1,26.4C53.1,21.8 51.4,17 46.5,17C45,17 43.5,17.9 42.7,19.2C40.5,23.1 41.5,31.6 45.3,40C43.9,44.2 42.4,48.2 40.5,52.7C38.9,56.5 37.1,60.4 35.1,64C24.1,68.4 17,73.5 16.2,77.5C15.9,79 16.4,80.4 17.5,81.5C17.9,81.8 19.3,83 21.7,83C29,83 36.7,71.2 40.6,64.1C43.6,63.1 46.6,62.1 49.6,61.3C52.9,60.4 56.2,59.7 59.2,59.2C66.9,66.1 73.7,67.2 77.1,67.2C81.3,67.2 82.8,65.5 83.3,64.1C84.2,62.3 83.6,60.3 82.7,59.3ZM78.7,62.2C78.4,63.7 76.9,64.7 74.8,64.7C74.2,64.7 73.7,64.6 73.1,64.5C69.3,63.6 65.7,61.7 62.1,58.7C65.6,58.1 68.6,58 70.5,58C72.6,58 74.4,58.1 75.6,58.4C77,58.7 79.2,59.6 78.7,62.2ZM57.5,57.5C54.9,58 52.1,58.6 49.2,59.4C46.9,60 44.5,60.7 42.1,61.5C43.4,59 44.5,56.6 45.5,54.3C46.7,51.5 47.7,48.6 48.7,45.9C49.7,47.6 50.8,49.3 51.9,50.8C53.8,53.2 55.7,55.5 57.5,57.5ZM44.4,20.3C44.8,19.5 45.6,19.1 46.3,19.1C48.4,19.1 48.8,21.5 48.8,23.4C48.8,26.6 47.8,31.5 46.1,37.1C43.2,29.3 43,22.8 44.4,20.3ZM33.4,66.9C28.3,75.3 23.4,80.5 20.4,80.5C19.8,80.5 19.3,80.3 18.9,80C18.3,79.4 18,78.7 18.2,77.9C18.8,74.9 24.6,70.7 33.4,66.9Z" style="fill:url(#_Linear2);fill-rule:nonzero;"/>
    </g>
    <defs>
        <radialGradient id="_Radial1" cx="0" cy="0" r="1" gradientUnits="userSpaceOnUse" gradientTransform="matrix(159.853,0,0,160.297,39.0224,-6.40976)"><stop offset="0" style="stop-color:rgb(236,28,36);stop-opacity:1"/><stop offset="0.15" style="stop-color:rgb(226,28,35);stop-opacity:1"/><stop offset="0.4" style="stop-color:rgb(197,27,33);stop-opacity:1"/><stop offset="0.73" style="stop-color:rgb(152,27,30);stop-opacity:1"/><stop offset="1" style="stop-color:rgb(110,26,27);stop-opacity:1"/></radialGradient>
        <linearGradient id="_Linear2" x1="0" y1="0" x2="1" y2="0" gradientUnits="userSpaceOnUse" gradientTransform="matrix(67.6619,0,0,67.6619,16.1685,50.0002)"><stop offset="0" style="stop-color:white;stop-opacity:1"/><stop offset="0.14" style="stop-color:white;stop-opacity:1"/><stop offset="1" style="stop-color:rgb(234,236,234);stop-opacity:1"/></linearGradient>
    </defs>
</svg>
